dist/icons/svgs/map-location-dot-outline.svg

<svg xmlns="http://www.w3.org/2000/svg" width="24" height="24" fill="currentcolor" class="icon-map-location-dot-outline" viewBox="0 0 24 24">
  <path d="M17.1875 6.6875C17.1875 7.03906 17.1094 7.42969 16.9922 7.82031C16.7578 8.52344 16.3672 9.34375 15.8984 10.125C15.7812 10.3594 15.6641 10.5547 15.5078 10.75C15.3516 11.0234 15.1953 11.2969 15 11.5703V11.6094C14.2578 12.6641 13.5547 13.6016 13.0469 14.1875C12.7734 14.5781 12.1875 14.5781 11.9141 14.1875C11.4062 13.6016 10.7031 12.6641 10 11.6094C9.25781 10.5547 8.55469 9.34375 8.16406 8.28906C8.125 8.21094 8.08594 8.13281 8.08594 8.05469C7.89062 7.58594 7.8125 7.11719 7.8125 6.72656C7.8125 6.53125 7.8125 6.33594 7.8125 6.17969C8.08594 3.83594 10.0781 2 12.5 2C15.0781 2 17.1875 4.10938 17.1875 6.6875ZM15 13.7578C15.5078 13.0547 16.0938 12.1953 16.6406 11.3359C16.7188 11.2188 16.7969 11.1016 16.875 10.9844V19.7344L21.875 17.9375V8.05469L17.6172 9.57812C17.6953 9.42188 17.7734 9.22656 17.8516 9.03125C18.0859 8.48438 18.2812 7.89844 18.3594 7.3125L22.4609 5.82812C22.7734 5.71094 23.0859 5.75 23.3203 5.94531C23.5938 6.10156 23.75 6.41406 23.75 6.6875V18.5625C23.75 18.9922 23.4766 19.3438 23.125 19.4609L16.25 21.9609C16.0156 22.0391 15.8203 22.0391 15.5859 21.9609L9.0625 19.5781L2.5 21.9609C2.1875 22.0781 1.875 22.0391 1.64062 21.8438C1.36719 21.6875 1.25 21.375 1.25 21.0625V9.1875C1.25 8.79688 1.48438 8.44531 1.83594 8.32812L6.5625 6.60938C6.5625 6.64844 6.5625 6.6875 6.5625 6.6875C6.5625 7.3125 6.67969 7.89844 6.875 8.48438L3.125 9.85156V19.7344L8.125 17.9375V10.9844C8.16406 11.1016 8.24219 11.2188 8.32031 11.3359C8.86719 12.1953 9.45312 13.0547 10 13.7578V17.9375L15 19.7344V13.7578ZM12.5 7.9375C13.0469 7.9375 13.5547 7.66406 13.8281 7.15625C14.1016 6.6875 14.1016 6.10156 13.8281 5.59375C13.5547 5.125 13.0469 4.8125 12.5 4.8125C11.9141 4.8125 11.4062 5.125 11.1328 5.59375C10.8594 6.10156 10.8594 6.6875 11.1328 7.15625C11.4062 7.66406 11.9141 7.9375 12.5 7.9375Z"/>
</svg>

<svg xmlns="http://www.w3.org/2000/svg" width="24" height="24" fill="currentColor" class="icon-map-location-dot-outline" viewBox="0 0 24 24">
  <path d="M17.188 6.688c0 .351-.079.742-.196 1.132-.234.703-.625 1.524-1.094 2.305a3.4 3.4 0 0 1-.39.625 9 9 0 0 1-.508.82v.04c-.742 1.054-1.445 1.992-1.953 2.578a.694.694 0 0 1-1.133 0c-.508-.586-1.21-1.524-1.914-2.579-.742-1.054-1.445-2.265-1.836-3.32a.6.6 0 0 1-.078-.234 3.5 3.5 0 0 1-.274-1.328V6.18C8.087 3.836 10.079 2 12.5 2a4.7 4.7 0 0 1 4.688 4.688M15 13.758a52 52 0 0 0 1.64-2.422l.235-.352v8.75l5-1.797V8.056l-4.258 1.523c.078-.156.156-.351.235-.547.234-.547.43-1.133.507-1.719l4.102-1.484c.312-.117.625-.078.86.117.273.157.429.47.429.742v11.875c0 .43-.273.782-.625.899l-6.875 2.5a.97.97 0 0 1-.664 0l-6.523-2.383L2.5 21.961c-.312.117-.625.078-.86-.117-.273-.157-.39-.469-.39-.782V9.188c0-.39.234-.742.586-.859L6.563 6.61v.079c0 .625.117 1.21.312 1.796l-3.75 1.368v9.882l5-1.797v-6.953c.04.118.117.235.195.352A33 33 0 0 0 10 13.758v4.18l5 1.796zm-2.5-5.82a1.48 1.48 0 0 0 1.328-.782c.274-.468.274-1.054 0-1.562a1.56 1.56 0 0 0-1.328-.782c-.586 0-1.094.313-1.367.782-.274.508-.274 1.093 0 1.562.273.508.781.782 1.367.782"/>
</svg>
